icons/basketball-fill.svg

<svg xmlns="http://www.w3.org/2000/svg" width="24" height="24" fill="none"><g clip-path="url(#a)"><g><path fill="#121212" d="M12.366 13.366L14.141 14.391C13.0813 16.738 12.9699 19.4038 13.83 21.831C13.2266 21.9439 12.6139 22.0005 12 22C10.583 22.0022 9.18184 21.7022 7.89 21.12L12.366 13.366ZM15.883 15.398L20.117 17.842C19.0141 19.3728 17.5019 20.5616 15.754 21.272C15.0883 19.4745 15.0911 17.4976 15.762 15.702L15.883 15.398ZM8.86 11.342L10.635 12.366L6.159 20.116C4.5033 18.9235 3.25087 17.2542 2.569 15.331C4.98532 14.8848 7.15204 13.5627 8.654 11.618L8.86 11.342ZM21.906 10.616C21.969 11.069 22.001 11.531 22.001 12C22.0032 13.417 21.7032 14.8182 21.121 16.11L16.885 13.665C18.0776 12.0909 19.8112 11.0146 21.751 10.644L21.906 10.616ZM2.881 7.891L7.116 10.336C5.89038 11.9534 4.09526 13.0438 2.095 13.386C2.03168 12.9267 1.99994 12.4636 2 12C2 10.535 2.315 9.144 2.88 7.89L2.881 7.891ZM17.842 3.883C19.4977 5.07553 20.7501 6.74485 21.432 8.668C19.0153 9.11511 16.8483 10.4379 15.346 12.383L15.141 12.659L13.366 11.634L17.842 3.884V3.883ZM12 2C13.465 2 14.856 2.315 16.11 2.88L11.634 10.634L9.859 9.61C10.9192 7.26242 11.0306 4.59585 10.17 2.168C10.7735 2.05551 11.3861 1.99927 12 2ZM8.247 2.73C8.91171 4.52779 8.90816 6.5046 8.237 8.3L8.117 8.603L3.883 6.158C4.94324 4.68697 6.38221 3.53068 8.047 2.812L8.247 2.729V2.73Z"/></g></g><defs><clipPath id="a"><rect width="24" height="24" fill="white"/></clipPath></defs></svg>

<svg width="24" height="24" fill="none" xmlns="http://www.w3.org/2000/svg"><g clip-path="url(#a)"><path d="m12.366 13.366 1.775 1.025a9.98 9.98 0 0 0-.311 7.44A9.907 9.907 0 0 1 12 22a9.965 9.965 0 0 1-4.11-.88l4.476-7.754Zm3.517 2.032 4.234 2.444a10.034 10.034 0 0 1-4.363 3.43 7.988 7.988 0 0 1 .008-5.57l.121-.304ZM8.86 11.342l1.775 1.024-4.476 7.75a10.026 10.026 0 0 1-3.59-4.785 9.978 9.978 0 0 0 6.085-3.713l.206-.276Zm13.046-.726c.063.453.095.915.095 1.384a9.965 9.965 0 0 1-.88 4.11l-4.236-2.445a7.985 7.985 0 0 1 4.866-3.021l.155-.028ZM2.881 7.891l4.235 2.445a7.99 7.99 0 0 1-5.021 3.05A10.14 10.14 0 0 1 2 12a9.98 9.98 0 0 1 .88-4.11l.001.001Zm14.961-4.008a10.026 10.026 0 0 1 3.59 4.785 9.985 9.985 0 0 0-6.086 3.715l-.205.276-1.775-1.025 4.476-7.75v-.001ZM12 2a9.98 9.98 0 0 1 4.11.88l-4.476 7.754L9.859 9.61a9.98 9.98 0 0 0 .311-7.442A9.922 9.922 0 0 1 12 2Zm-3.753.73a7.992 7.992 0 0 1-.01 5.57l-.12.303-4.234-2.445a10.036 10.036 0 0 1 4.164-3.346l.2-.083v.001Z" /></g><defs><clipPath id="a"><path fill="#fff" d="M0 0h24v24H0z"/></clipPath></defs></svg>
